pk/shade.svg

<svg viewBox="0 0 48 48" fill="none" xmlns="http://www.w3.org/2000/svg" height="1em" width="1em">
  <path d="M24 6C14.0589 6 6 14.034 6 23.9444V26C6 23.5224 8.01472 21 10.5 21C12.9853 21 15 23.5224 15 26C15 23.5224 17.0147 21 19.5 21C21.9853 21 24 23.5224 24 26C24 23.5224 26.0147 21 28.5 21C30.9853 21 33 23.5224 33 26C33 23.5224 35.0147 21 37.5 21C39.9853 21 42 23.5224 42 26V23.9444C42 14.034 33.9411 6 24 6Z" fill="#2F88FF" stroke="black" stroke-width="4" stroke-linecap="round" stroke-linejoin="round"/>
  <path d="M15.0003 26C15.0003 26 13.4999 20.5 16.0005 15C18.5011 9.49998 24.0002 5.99999 24.0002 5.99999" stroke="white" stroke-width="4" stroke-linecap="round" stroke-linejoin="round"/>
  <path d="M33.0002 26C33.0002 26 33.5006 21.5 31.0003 15C28.5 8.5 24.0002 5.99999 24.0002 5.99999" stroke="white" stroke-width="4" stroke-linecap="round" stroke-linejoin="round"/>
  <path d="M24 25V39.5C24 41.9853 21.9853 44 19.5 44V44C17.0147 44 15 41.9853 15 39.5V38.1818" stroke="black" stroke-width="4" stroke-linecap="round" stroke-linejoin="round"/>
  <path d="M24 25V6" stroke="white" stroke-width="4" stroke-linecap="round" stroke-linejoin="round"/>
  <path d="M24 6V4" stroke="black" stroke-width="4" stroke-linecap="round" stroke-linejoin="round"/>
  <path d="M28.5 21C30.9853 21 33 23.5224 33 26C33 23.5224 35.0147 21 37.5 21" stroke="black" stroke-width="4" stroke-linecap="round" stroke-linejoin="round"/>
  <path d="M28.5 21C26.0147 21 24 23.5224 24 26C24 23.5224 21.9853 21 19.5 21" stroke="black" stroke-width="4" stroke-linecap="round" stroke-linejoin="round"/>
  <path d="M10.5 21C12.9853 21 15 23.5224 15 26C15 23.5224 17.0147 21 19.5 21" stroke="black" stroke-width="4" stroke-linecap="round" stroke-linejoin="round"/>
  <path d="M15.7334 8C18.2088 6.72196 21.0197 6 23.9998 6C26.9798 6 29.7908 6.72196 32.2661 8" stroke="black" stroke-width="4" stroke-linecap="round" stroke-linejoin="round"/>
</svg>

<svg viewBox="0 0 48 48" fill="none" xmlns="http://www.w3.org/2000/svg" height="1em" width="1em">
  <path d="M24 6C14.059 6 6 14.034 6 23.944V26c0-2.478 2.015-5 4.5-5s4.5 2.522 4.5 5c0-2.478 2.015-5 4.5-5s4.5 2.522 4.5 5c0-2.478 2.015-5 4.5-5s4.5 2.522 4.5 5c0-2.478 2.015-5 4.5-5s4.5 2.522 4.5 5v-2.056C42 14.034 33.941 6 24 6Z" fill="#2F88FF" stroke="#000" stroke-width="4" stroke-linecap="round" stroke-linejoin="round"/>
  <path d="M15 26s-1.5-5.5 1-11c2.501-5.5 8-9 8-9m9 20s.5-4.5-2-11-7-9-7-9" stroke="#fff" stroke-width="4" stroke-linecap="round" stroke-linejoin="round"/>
  <path d="M24 25v14.5a4.5 4.5 0 0 1-4.5 4.5v0a4.5 4.5 0 0 1-4.5-4.5v-1.318" stroke="#000" stroke-width="4" stroke-linecap="round" stroke-linejoin="round"/>
  <path d="M24 25V6" stroke="#fff" stroke-width="4" stroke-linecap="round" stroke-linejoin="round"/>
  <path d="M24 6V4m4.5 17c2.485 0 4.5 2.522 4.5 5 0-2.478 2.015-5 4.5-5m-9 0c-2.485 0-4.5 2.522-4.5 5 0-2.478-2.015-5-4.5-5m-9 0c2.485 0 4.5 2.522 4.5 5 0-2.478 2.015-5 4.5-5M15.733 8C18.21 6.722 21.02 6 24 6c2.98 0 5.79.722 8.266 2" stroke="#000" stroke-width="4" stroke-linecap="round" stroke-linejoin="round"/>
</svg>
